src/images/v2/bird.svg

<svg fill="none" height="71" viewBox="0 0 56 71" width="56" xmlns="http://www.w3.org/2000/svg"><path d="m26.5954 70.8686c-14.6884 0-26.59560267-3.066-26.59560267-6.8481s11.90720267-6.8481 26.59560267-6.8481c14.6883 0 26.5955 3.066 26.5955 6.8481s-11.9072 6.8481-26.5955 6.8481z" fill="#f0f4f9"/><g fill="#000"><path d="m21.024 45.583c-.2094.6221-.3849 1.2552-.5256 1.8964-.1471.6321-.267 1.2643-.3721 1.8964-.206 1.2643-.3546 2.5236-.4457 3.778-.1797 2.5165-.1713 5.043.0252 7.5582l.6938-1.1652c-.5067.3245-1.0028.6701-1.4969 1.0135l-.7337.5352-.7233.5521c-.4772.3814-.9503.7649-1.4107 1.1758-.4692.4113-.9169.8467-1.3413 1.3043.615-.103 1.2242-.2388 1.8249-.4067.595-.1559 1.1752-.3414 1.7555-.531l.8578-.3013.8409-.3203c.5593-.2234 1.1206-.4467 1.6673-.6932l.6307-.2803.0694-.8829c.1965-2.5152.2049-5.0417.0252-7.5582-.0925-1.2642-.2376-2.5285-.4457-3.778-.1051-.6321-.225-1.2643-.3701-1.8964-.1417-.641-.3171-1.274-.5256-1.8964z"/><path d="m30.695 47.6904c-.2099.6222-.386 1.2552-.5277 1.8964-.1471.6322-.267 1.2643-.3721 1.8964-.206 1.2643-.3539 2.5335-.4436 3.8075-.0897 1.2741-.1317 2.5426-.1261 3.8055 0 1.2642.0504 2.539.1534 3.8075l.6917-1.161c-.5067.3245-1.0007.67-1.4948 1.0135l-.7337.5352-.7254.5521c-.4751.3792-.9503.7627-1.4086 1.1757-.4698.4099-.9182.8439-1.3434 1.3001.6142-.1038 1.2226-.2395 1.8228-.4067.5971-.158 1.1773-.3434 1.7555-.5331l.8578-.3013.8409-.3181c.5593-.2255 1.1206-.4489 1.6694-.6954l.6307-.276.0715-.885c.103-1.2643.1492-2.5285.1555-3.8075s-.0378-2.5286-.1282-3.8055-.2376-2.5285-.4436-3.8075c-.1051-.6321-.225-1.2642-.3721-1.8964-.1424-.6412-.3192-1.2743-.5299-1.8964z"/><path d="m16.6108 2.93069-11.12175 11.14661-2.6007-11.99788c-.05878-.27816-.04641-.56669.03596-.83877.08238-.272074.23208-.518847.43519-.717356.2031-.198509.453-.342306.72646-.41801.27345-.0757041.56156-.080856.83753-.0149766z"/></g><path d="m29.6862 53.1681h11.8661c.5225 0 1.0235-.208 1.393-.5782.3694-.3703.577-.8725.577-1.3961v-28.703c0-5.4981-2.1787-10.7711-6.057-14.65965-3.8783-3.88853-9.1387-6.0742-14.6245-6.07643h-.0442c-4.7607 0-9.3265 1.89542-12.6928 5.26929-3.36641 3.37389-5.25761 7.94979-5.25761 12.72119v8.5211c0 6.6055 2.61818 12.9405 7.27861 17.6113 4.6603 4.6707 10.9812 7.2948 17.572 7.2948z" fill="#fff"/><path clip-rule="evenodd" d="m29.2486 52.1701c-6.163-.1159-12.0495-2.62-16.417-6.9973-4.47337-4.4834-6.98688-10.5646-6.98688-16.906v-8.5211c0-4.5073 1.78654-8.8295 4.96588-12.01592 3.1793-3.18636 7.4908-4.97604 11.986-4.97604h.0438c5.2202.00223 10.2267 2.0821 13.9179 5.78303 3.6914 3.70113 5.7654 8.72043 5.7654 13.95453v28.703c0 .2595-.1029.508-.2853.6908-.1823.1827-.4292.285-.6861.285zm5.6111 1.9971h6.6926c.788 0 1.5433-.3138 2.0998-.8716.5565-.5577.8687-1.3136.8687-2.1013v-28.703c0-5.7622-2.2833-11.2889-6.3485-15.3648-4.0653-4.07602-9.5798-6.367477-15.3311-6.36982h-.0446c-5.0263 0-9.8463 2.00116-13.39971 5.56254-3.55337 3.5613-5.54923 8.39098-5.54923 13.42648v8.5211c0 6.8696 2.72284 13.4583 7.57024 18.3165 4.8475 4.8583 11.4225 7.5881 18.2789 7.5881h5.1735z" fill="#000" fill-rule="evenodd"/><path d="m26.491 25.987c-2.3223 0-4.2049-1.8868-4.2049-4.2142s1.8826-4.2142 4.2049-4.2142c2.3222 0 4.2048 1.8868 4.2048 4.2142s-1.8826 4.2142-4.2048 4.2142z" fill="#ffaeae"/><path d="m19.5523 22.826c-4.4123 0-7.9892-3.5848-7.9892-8.007 0-4.4221 3.5769-8.00699 7.9892-8.00699s7.9892 3.58489 7.9892 8.00699c0 4.4222-3.5769 8.007-7.9892 8.007z" fill="#fff"/><path clip-rule="evenodd" d="m19.5528 7.81005c3.8587 0 6.9907 3.13575 6.9907 7.00845 0 3.8728-3.132 7.0085-6.9907 7.0085s-6.9906-3.1357-6.9906-7.0085c0-3.8727 3.1319-7.00845 6.9906-7.00845zm8.9877 7.00845c0-4.9715-4.0218-9.00551-8.9877-9.00551s-8.9877 4.03401-8.9877 9.00551 4.0218 9.0056 8.9877 9.0056 8.9877-4.0341 8.9877-9.0056z" fill="#000" fill-rule="evenodd"/><path d="m43.0533 53.307 12.1373-6.9935-4.6274 6.8017 5.4368 5.8683z" fill="#000"/><circle cx="16.3492" cy="12.3751" fill="#191919" r="2.29651"/></svg>

<svg width="56" height="71" viewBox="0 0 56 71" fill="none" xmlns="http://www.w3.org/2000/svg">
<path d="M26.5954 70.8686C11.907 70.8686 -0.000202672 67.8026 -0.000202672 64.0205C-0.000202672 60.2384 11.907 57.1724 26.5954 57.1724C41.2837 57.1724 53.1909 60.2384 53.1909 64.0205C53.1909 67.8026 41.2837 70.8686 26.5954 70.8686Z" fill="#F0F4F9"/>
<path d="M21.024 45.583C20.8146 46.2051 20.6391 46.8382 20.4984 47.4794C20.3513 48.1115 20.2314 48.7437 20.1263 49.3758C19.9203 50.6401 19.7717 51.8994 19.6806 53.1538C19.5009 55.6703 19.5093 58.1968 19.7058 60.712L20.3996 59.5468C19.8929 59.8713 19.3968 60.2169 18.9027 60.5603L18.169 61.0955L17.4457 61.6476C16.9685 62.029 16.4954 62.4125 16.035 62.8234C15.5658 63.2347 15.1181 63.6701 14.6937 64.1277C15.3087 64.0247 15.9179 63.8889 16.5186 63.721C17.1136 63.5651 17.6938 63.3796 18.2741 63.19L19.1319 62.8887L19.9728 62.5684C20.5321 62.345 21.0934 62.1217 21.6401 61.8752L22.2708 61.5949L22.3402 60.712C22.5367 58.1968 22.5451 55.6703 22.3654 53.1538C22.2729 51.8896 22.1278 50.6253 21.9197 49.3758C21.8146 48.7437 21.6947 48.1115 21.5496 47.4794C21.4079 46.8384 21.2325 46.2054 21.024 45.583V45.583Z" fill="black"/>
<path d="M30.695 47.6904C30.4851 48.3126 30.309 48.9456 30.1673 49.5868C30.0202 50.219 29.9003 50.8511 29.7952 51.4832C29.5892 52.7475 29.4413 54.0167 29.3516 55.2907C29.2619 56.5648 29.2199 57.8333 29.2255 59.0962C29.2255 60.3604 29.2759 61.6352 29.3789 62.9037L30.0706 61.7427C29.5639 62.0672 29.0699 62.4127 28.5758 62.7562L27.8421 63.2914L27.1167 63.8435C26.6416 64.2227 26.1664 64.6062 25.7081 65.0192C25.2383 65.4291 24.7899 65.8631 24.3647 66.3193C24.9789 66.2155 25.5873 66.0798 26.1875 65.9126C26.7846 65.7546 27.3648 65.5692 27.943 65.3795L28.8008 65.0782L29.6417 64.7601C30.201 64.5346 30.7623 64.3112 31.3111 64.0647L31.9418 63.7887L32.0133 62.9037C32.1163 61.6394 32.1625 60.3752 32.1688 59.0962C32.1751 57.8172 32.131 56.5676 32.0406 55.2907C31.9502 54.0138 31.803 52.7622 31.597 51.4832C31.4919 50.8511 31.372 50.219 31.2249 49.5868C31.0825 48.9456 30.9057 48.3125 30.695 47.6904Z" fill="black"/>
<path d="M16.6108 2.93069L5.48905 14.0773L2.88835 2.07942C2.82957 1.80126 2.84194 1.51273 2.92431 1.24065C3.00669 0.968576 3.15639 0.721803 3.3595 0.523294C3.5626 0.324785 3.8125 0.180988 4.08596 0.105284C4.35941 0.0295799 4.64752 0.024428 4.92349 0.0903074L16.6108 2.93069Z" fill="black"/>
<path d="M29.6862 53.1681H41.5523C42.0748 53.1681 42.5758 52.9601 42.9453 52.5899C43.3147 52.2196 43.5223 51.7174 43.5223 51.1938L43.5223 22.4908C43.5223 16.9927 41.3436 11.7197 37.4653 7.83115C33.587 3.94262 28.3266 1.75695 22.8408 1.75472H22.7966C18.0359 1.75472 13.4701 3.65014 10.1038 7.02401C6.73739 10.3979 4.84619 14.9738 4.84619 19.7452L4.84619 28.2663C4.84619 34.8718 7.46437 41.2068 12.1248 45.8776C16.7851 50.5483 23.106 53.1724 29.6968 53.1724L29.6862 53.1681Z" fill="white"/>
<path fill-rule="evenodd" clip-rule="evenodd" d="M29.2486 52.1701C23.0856 52.0542 17.1991 49.5501 12.8316 45.1728C8.35823 40.6894 5.84472 34.6082 5.84472 28.2668L5.84472 19.7457C5.84472 15.2384 7.63126 10.9162 10.8106 7.72978C13.9899 4.54342 18.3014 2.75374 22.7966 2.75374H22.8404C22.8405 2.75374 22.8402 2.75374 22.8404 2.75374C28.0606 2.75597 33.0671 4.83584 36.7583 8.53677C40.4497 12.2379 42.5237 17.2572 42.5237 22.4913L42.5237 51.1943C42.5237 51.4538 42.4208 51.7023 42.2384 51.8851C42.0561 52.0678 41.8092 52.1701 41.5523 52.1701L29.2486 52.1701ZM34.8597 54.1672H41.5523C42.3403 54.1672 43.0956 53.8534 43.6521 53.2956C44.2086 52.7379 44.5208 51.982 44.5208 51.1943L44.5208 22.4913C44.5208 16.7291 42.2375 11.2024 38.1723 7.1265C34.107 3.05048 28.5925 0.759023 22.8412 0.75668H22.7966C17.7703 0.75668 12.9503 2.75784 9.39689 6.31922C5.84352 9.88052 3.84766 14.7102 3.84766 19.7457L3.84766 28.2668C3.84766 35.1364 6.5705 41.7251 11.4179 46.5833C16.2654 51.4416 22.8404 54.1714 29.6968 54.1714L34.8703 54.1714L34.8597 54.1672Z" fill="black"/>
<path d="M26.491 25.987C24.1687 25.987 22.2861 24.1002 22.2861 21.7728C22.2861 19.4454 24.1687 17.5586 26.491 17.5586C28.8132 17.5586 30.6958 19.4454 30.6958 21.7728C30.6958 24.1002 28.8132 25.987 26.491 25.987Z" fill="#FFAEAE"/>
<path d="M19.5523 22.826C15.14 22.826 11.5631 19.2412 11.5631 14.819C11.5631 10.3969 15.14 6.81201 19.5523 6.81201C23.9646 6.81201 27.5415 10.3969 27.5415 14.819C27.5415 19.2412 23.9646 22.826 19.5523 22.826Z" fill="white"/>
<path fill-rule="evenodd" clip-rule="evenodd" d="M19.5528 7.81005C23.4115 7.81005 26.5435 10.9458 26.5435 14.8185C26.5435 18.6913 23.4115 21.827 19.5528 21.827C15.6941 21.827 12.5622 18.6913 12.5622 14.8185C12.5622 10.9458 15.6941 7.81005 19.5528 7.81005ZM28.5405 14.8185C28.5405 9.847 24.5187 5.81299 19.5528 5.81299C14.5869 5.81299 10.5651 9.847 10.5651 14.8185C10.5651 19.79 14.5869 23.8241 19.5528 23.8241C24.5187 23.8241 28.5405 19.79 28.5405 14.8185Z" fill="black"/>
<path d="M43.0533 53.307L55.1906 46.3135L50.5632 53.1152L56 58.9835L43.0533 53.307Z" fill="black"/>
<circle cx="16.3492" cy="12.3751" r="2.29651" fill="#191919"/>
</svg>
